X:1
T:[ID 1-103a]
T:[ID 1-103a]
T:Bezeichnung standardisiert: Englischer Contratanz Englisch. Conterdantz
T:Urheber unbekannt Datum in der hier transkribierten schriftlichen Quelle: vermutlich vor 1767
C:Urheber unbekannt
C:Datum in der hier transkribierten schriftlichen Quelle: vermutlich vor 1767
L:1/8
M:6/8
K:D
V:1 treble 
V:1
 A | d>ed d>ef | e>fe e>fg | f>gf f>ed | e>fe e>dc | d3 c3 | A3 (2:3:2d3/2c/ | d3 D2 :: a | %9
 a>ba a>bc' | d'2 a>baa | a>bg a>bc' | d'2 c'>baf | g>ab b>ag | f>ga a>gf | e>fg g>fe | d>ef f>ed | %17
 d3 c3 | A3 (2:3:2d3/2c/ | d3 :| %20

